web/public/PlayPlay.svg

<svg xmlns="http://www.w3.org/2000/svg" width="48" height="48" viewBox="0 0 32 32" fill="none">
<path d="M23.5294 -3.05176e-05H8.47059C3.79241 -3.05176e-05 0 3.79238 0 8.47056V23.5294C0 28.2076 3.79241 32 8.47059 32H23.5294C28.2076 32 32 28.2076 32 23.5294V8.47056C32 3.79238 28.2076 -3.05176e-05 23.5294 -3.05176e-05Z" fill="url(#paint0_linear_146_710)"/>
<path d="M22.7427 1.6716H9.25723C5.06782 1.6716 1.67163 5.06779 1.67163 9.2572V22.7427C1.67163 26.9321 5.06782 30.3283 9.25723 30.3283H22.7427C26.9322 30.3283 30.3283 26.9321 30.3283 22.7427V9.2572C30.3283 5.06779 26.9322 1.6716 22.7427 1.6716Z" fill="#111214"/>
<path d="M19.5645 7.5457C19.4993 7.45526 19.4131 7.38584 19.3142 7.34167C19.2343 7.30592 19.1459 7.28488 19.0555 7.28488H15.423C15.2421 7.28488 15.0885 7.3585 14.977 7.46998C14.7751 7.67401 14.7204 8.01055 14.9139 8.27768L20.2103 15.6332C20.2881 15.7426 20.3281 15.8709 20.3281 15.9992C20.3281 16.1275 20.2881 16.2558 20.2103 16.3652L14.9139 23.7208C14.7204 23.9879 14.7772 24.3265 14.9791 24.5306C15.0885 24.642 15.2421 24.7136 15.423 24.7136H19.0555C19.1459 24.7136 19.2343 24.6946 19.3142 24.6589C19.4131 24.6147 19.4993 24.5432 19.5645 24.4527L25.3846 16.3652C25.4624 16.2558 25.5024 16.1275 25.5024 15.9992C25.5024 15.8709 25.4624 15.7426 25.3846 15.6332L19.5645 7.5457Z" fill="white"/>
<path d="M9.30247 24.7138H12.6237C12.7962 24.7138 12.9539 24.6444 13.0675 24.5308C13.1811 24.4172 13.2505 24.2616 13.2505 24.087V7.91197C13.2505 7.73949 13.1811 7.58173 13.0675 7.46815C12.9539 7.35457 12.7983 7.28516 12.6237 7.28516H9.30247C9.12999 7.28516 8.97224 7.35457 8.85865 7.46815C8.74507 7.58173 8.67566 7.73738 8.67566 7.91197V24.087C8.67566 24.2595 8.74507 24.4172 8.85865 24.5308C8.97224 24.6444 9.12789 24.7138 9.30247 24.7138Z" fill="white"/>
<defs>
<linearGradient id="paint0_linear_146_710" x1="-1.36376e-05" y1="32" x2="32" y2="-4.22478e-05" gradientUnits="userSpaceOnUse">
<stop stop-color="#FF9737"/>
<stop offset="0.25" stop-color="#FA636B"/>
<stop offset="0.505" stop-color="#B353FF"/>
<stop offset="0.755" stop-color="#7056FF"/>
<stop offset="1" stop-color="#5884FF"/>
</linearGradient>
</defs>
</svg>

<svg xmlns="http://www.w3.org/2000/svg" width="48" height="48" fill="none" viewBox="0 0 32 32"><path fill="url(#a)" d="M23.53 0H8.47A8.47 8.47 0 0 0 0 8.47v15.06A8.47 8.47 0 0 0 8.47 32h15.06A8.47 8.47 0 0 0 32 23.53V8.47A8.47 8.47 0 0 0 23.53 0"/><path fill="#111214" d="M22.743 1.672H9.257a7.586 7.586 0 0 0-7.585 7.585v13.486a7.586 7.586 0 0 0 7.585 7.585h13.486a7.586 7.586 0 0 0 7.585-7.585V9.257a7.586 7.586 0 0 0-7.585-7.585"/><path fill="#fff" d="M19.565 7.546a.64.64 0 0 0-.509-.26h-3.633a.62.62 0 0 0-.446.184.62.62 0 0 0-.063.808l5.296 7.355a.63.63 0 0 1 0 .732l-5.296 7.356a.626.626 0 0 0 .509.993h3.632a.62.62 0 0 0 .509-.26l5.82-8.089a.63.63 0 0 0 0-.732zM9.302 24.714h3.322a.626.626 0 0 0 .627-.627V7.912a.626.626 0 0 0-.627-.627H9.302a.626.626 0 0 0-.626.627v16.175a.626.626 0 0 0 .626.627"/><defs><linearGradient id="a" x1="0" x2="32" y1="32" y2="0" gradientUnits="userSpaceOnUse"><stop stop-color="#ff9737"/><stop offset=".25" stop-color="#fa636b"/><stop offset=".505" stop-color="#b353ff"/><stop offset=".755" stop-color="#7056ff"/><stop offset="1" stop-color="#5884ff"/></linearGradient></defs></svg>
